X:164
T:Crown Him With Many Crowns
%%stretchlast false
M:4/4
L:1/4
K:C clef=C1
"^I"[C,E,G,C] [C,E,G,C]/ [C,E,G,C]/ "^vi"[A,,E,CE] [A,,E,CE] | "^IV"[F,,F,CA]3 [F,CA] | "^I¹"[E,G,CG] "^IV"[F,A,C] "^vii°¹"[D,F,B,F] "^I"[C,G,CE] | "^V"[G,,G,B,D]3 [G,,G,B,D] | "^I"[C,G,CE] "^V¹"[B,,G,DG] "^vi"[A,,E,CA] "^I"[C,E,CG] | "^II"[D,A,^F] "^vi¹"[C,^F,A,E]/ "^II7³"[C,^F,A,D]/ "^V¹"[B,,G,DG] "^IV¹"[A,,F,Cc] | "^V"[G,,G,DB] "^I"[C,G,Ec] "^v"[D,G,A,A] "^V/V"[D,^F,DA] | "^V"[G,B,G]3 "^V7³"[F,G,B,G] | "^I¹"[E,G,CG] "^I"[C,G,CE] "^vii°¹"[D,F,B,D] "^I¹"[E,G,C] | "^IV"[F,A,CA]3 "^VI7²"[E,G,^CA] | "^II"[D,^F,DA] [D,A,D^F] "^I¹"[E,G,CE] "^II7¹"[^F,A,CD] | "^V"[G,B,B]3 "^V7³"[F,G,DB] | "^I¹"[E,G,Cc] [E,G,Cc]/ "^Imaj7¹"[E,G,CB]/ "^IV"[F,CA] "^I¹"[E,G,CG] | "^ii7"[D,A,CF] "^V"[G,B,D] "^I"[C,G,CE] "^I¹"[E,,G,CG] | "^IV"[F,,A,CF] "^I"[C,G,CE] [G,,G,CD] "^V"[G,,G,B,D]/ "^V7"[G,,F,B,D]/ | "^I"[C,E,C]4 |]
